X:1
T:Hush, My Babe
T:Hush, My Babe
T:Public Domain
Z:Public Domain
%%score ( 1 2 ) ( 3 4 )
L:1/8
Q:1/4=115
M:2/4
K:F
V:1 treble nm="Right Hand"
V:2 treble 
V:3 bass nm="Hush, My Babe"
V:4 bass 
V:1
 ([FA]2 A3/2 G/ | [CF]2 [CF]2 | [EG]2 [EG]2 | A3/2 G/ x2 | [Ac]2 [Ac]3/2 [GB]/ | [FA]2 [CA]2 | %6
 G3/2 F/ G3/2 A/ | [CF]4) | ([FA]2 [FA]3/2 G/ | [CF]2 [CF]2 | [EG]2 [EG]2 | A3/2 G/ x2 | %12
 [Ac]2 [Ac]3/2 [GB]/ | [FA]2 [CA]2 | G3/2 F/ G3/2 A/ | [CF]4) | ([FA]2 [FA]3/2 [GB]/ | %17
 [Ac]2 [Ac]2 | [Bd]2 [Bd]2 | [Ac]3/2 [GB]/ [FA]2 | [FA]2 [FA]3/2 [GB]/ | [Ac]2 [Ac]2 | %22
 [Bd]2 [Bd]2 | [Ac]4) | ([FA]2 [FA]3/2 G/ | [CF]2 [CF]2 | [EG]2 [EG]2 | A3/2 G/ x2 | %28
 [Ac]2 [Ac]3/2 [GB]/ | [FA]2 [CA]2 | G3/2 F/ G3/2 A/ | [CF]8) |] %32
V:2
 x2 F2 | x4 | x4 | F2 F2 | x4 | x4 | C2 C2 | x4 | x4 | x4 | x4 | F2 F2 | x4 | x4 | C2 C2 | x4 | %16
 x4 | x4 | x4 | x4 | x4 | x4 | x4 | x4 | x4 | x4 | x4 | F2 F2 | x4 | x4 | C2 C2 | x8 |] %32
V:3
 ([F,C]2 C3/2 B,/ | [F,A,]2 [F,A,]2 | [C,C]2 [C,C]2 | C3/2 B,/ [F,A,]2 | [F,E]2 [F,C]2 | %5
 [F,E]2 [F,C]2 | B,3/2 A,/ B,3/2 C/ | [F,A,]4) | ([F,C]2 [F,C]2 | [F,A,]2 [F,A,]2 | [C,C]2 [C,C]2 | %11
 [F,C]2 [F,A,]2 | [F,C]2 [F,C]2 | [F,C]2 [F,C]2 | [C,B,]2 [C,B,]2 | [F,A,]4) | (F,2 F,2 | F,2 F,2 | %18
 B,,2 D,2 | F,2 F,2 | F,2 F,2 | F,2 F,2 | B,,2 D,2 | F,4) | ([F,C]2 C3/2 B,/ | [F,A,]2 [F,A,]2 | %26
 [C,C]2 [C,C]2 | C3/2 B,/ [F,A,]2 | [F,F]2 [F,C]2 | [F,C]2 [F,C]2 | B,3/2 A,/ B,3/2 C/ | %31
 [F,A,]8) |] %32
V:4
 x2 F,2 | x4 | x4 | F,2 x2 | x4 | x4 | C,2 C,2 | x4 | x4 | x4 | x4 | x4 | x4 | x4 | x4 | x4 | x4 | %17
 x4 | x4 | x4 | x4 | x4 | x4 | x4 | x2 F,2 | x4 | x4 | F,2 x2 | x4 | x4 | C,2 C,2 | x8 |] %32

